**kern	**kern	**kern	**dynam
*	*^	*^	*
*clefF4	*clefG2	*clefG2
*k[f#c#]	*k[f#c#]	*k[f#c#]
*M3/4	*M3/4	*M3/4
=	=	=	=57
4C# 4G#	8e#L	4c#	p
!	!LO:TX:b:i:t=poco	!	!
.	8f#J	.	.
4C# 4F# 4B	4g#	4d	.
!	!LO:TX:b:i:t=a	!	!
4C# 4E# 4B	8aL	4c#	.
.	8g#J	.	.
=	=	=	=58
*ped	*	*	*
!	!LO:TX:b:i:t=poco	!	!
4FF#	8f#L	4c#	.
.	8g#J	.	.
4F# 4A	4a	4c#	.
*Xped	*	*	*
!	!LO:TX:b:i:t=cresc.	!	!
4Fn 4A	8bL	4d#	.
.	8aJ	.	.
=	=	=	=59
4E 4B	8g#L	4e	.
.	8aJ	.	.
4E 4A 4dn	4b	4fn	.
4E 4G# 4d	8cc#L	4e	.
.	8bJ	.	.
=	=	=	=60
*ped	*	*	*
4AA	8aL	4e	.
.	8bJ	.	.
4A 4e	4cc#	4a	.
*Xped	*	*	*
4A 4c#	8dd#L	4f##	.
.	8cc#J	.	.
=	=	=	=61
4G# 4d#	8b#L	4g#	.
.	8cc#J	.	.
4G# 4c# 4f#	4dd#	4a	.
4G# 4B# 4f#	8ee#L	4g#	.
.	8dd#J	.	.
=	=	=	=62
*ped	*	*	*
4C# 4c#	8cc#L	4bn	.
.	8dd#J	.	.
*clefG2	*	*	*
4c# 4g#	4ee#	4b 4cc#	.
*Xped	*	*	*
4c# 4a	4ff#	4cc#	.
=	=	=	=63
8.c# 8.g# 8.bL	2ryy	8.cc# 8.ee#L	.
16c# 16f# 16bJk	.	16dd 16dddJk	.
4c# 4e# 4b	.	4cc# 4ccc#	.
4c# 4e# 4b	8gg#L	4cc#	.
.	8aaJ	.	.
*clefF4	*	*	*
*	*v	*v	*
=	=	=64
*ped	*	*
4F# 4c# 4f#	4a 4ff#)	.
4FF# 4F#	4ff# 4fff#	fz
*Xped	*	*
4r	4r	.
==	==	==
*-	*-	*-
